src/main/resources/icons/DatabaseIcons/icons/projection_dark.svg

<svg xmlns="http://www.w3.org/2000/svg" width="16" height="16" viewBox="0 0 16 16"><rect id="frame" width="16" height="16" fill="none"/><g fill="#9AA7B0" fill-rule="evenodd"><path d="M2 14H1V2h14v6H6v2h1v1H6v2h1v1H2zm0-1h3v-2H2v2zm3-3V8H2v2h3zm1-3h4V5H6v2zM5 7V5H2v2h3zm9 0V5h-3v2h3z"/><path d="M12 9h1v1h-1V9zm2 0h1v1h-1V9zm0 2h1v1h-1v-1zm0 2h1v1h-1v-1zm0 2h1v1h-1v-1zm-2 0h1v1h-1v-1zm-2 0h1v1h-1v-1zm-2 0h1v1H8v-1zm0-2h1v1H8v-1zm0-2h1v1H8v-1zm0-2h1v1H8V9zm2 0h1v1h-1V9z"/></g></svg>

<svg xmlns="http://www.w3.org/2000/svg" width="16" height="16" viewBox="0 0 16 16">
  <g fill="none" fill-rule="evenodd">
    <path fill="#9AA7B0" d="M2,14 L1,14 L1,5 L1,2 L15,2 L15,5 L15,8 L14,8 L6,8 L6,10 L7,10 L7,11 L6,11 L6,13 L7,13 L7,14 L2,14 Z M2,13 L5,13 L5,11 L2,11 L2,13 Z M5,10 L5,8 L2,8 L2,10 L5,10 Z M6,7 L10,7 L10,5 L6,5 L6,7 Z M5,7 L5,5 L2,5 L2,7 L5,7 Z M14,7 L14,5 L11,5 L11,7 L14,7 Z"/>
    <path fill="#9AA7B0" d="M12,9 L13,9 L13,10 L12,10 L12,9 Z M14,9 L15,9 L15,10 L14,10 L14,9 Z M14,11 L15,11 L15,12 L14,12 L14,11 Z M14,13 L15,13 L15,14 L14,14 L14,13 Z M14,15 L15,15 L15,16 L14,16 L14,15 Z M12,15 L13,15 L13,16 L12,16 L12,15 Z M10,15 L11,15 L11,16 L10,16 L10,15 Z M8,15 L9,15 L9,16 L8,16 L8,15 Z M8,13 L9,13 L9,14 L8,14 L8,13 Z M8,11 L9,11 L9,12 L8,12 L8,11 Z M8,9 L9,9 L9,10 L8,10 L8,9 Z M10,9 L11,9 L11,10 L10,10 L10,9 Z"/>
  </g>
</svg>
